_includes/icons/ios-smartphone-tablet.svg

<svg fill="#666" height="50" viewBox="0 0 50 50" width="50" xmlns="http://www.w3.org/2000/svg"><path d="m4 1c-2.199219 0-4 1.800781-4 4v38c0 2.199219 1.800781 4 4 4h21v-2h-21c-1.117187 0-2-.882812-2-2v-38c0-1.117187.882813-2 2-2h28c1.117188 0 2 .882813 2 2v9h2v-9c0-2.199219-1.800781-4-4-4zm.8125 4c-.476562.089844-.820312.511719-.8125 1v33c0 .550781.449219 1 1 1h20v-2h-19v-31h24v7h2v-8c0-.550781-.449219-1-1-1h-26c-.03125 0-.0625 0-.09375 0s-.0625 0-.09375 0zm24.1875 10c-1.644531 0-3 1.355469-3 3v29c0 1.644531 1.355469 3 3 3h18c1.644531 0 3-1.355469 3-3v-29c0-1.644531-1.355469-3-3-3zm0 2h18c.566406 0 1 .433594 1 1v29c0 .566406-.433594 1-1 1h-18c-.566406 0-1-.433594-1-1v-29c0-.566406.433594-1 1-1zm1.8125 2c-.476562.089844-.820312.511719-.8125 1v22c0 .550781.449219 1 1 1h14c.550781 0 1-.449219 1-1v-22c0-.550781-.449219-1-1-1h-14c-.03125 0-.0625 0-.09375 0s-.0625 0-.09375 0zm1.1875 2h12v20h-12zm-14 20c-.828125 0-1.5.671875-1.5 1.5s.671875 1.5 1.5 1.5 1.5-.671875 1.5-1.5-.671875-1.5-1.5-1.5zm20 3c-.828125 0-1.5.671875-1.5 1.5s.671875 1.5 1.5 1.5 1.5-.671875 1.5-1.5-.671875-1.5-1.5-1.5z"/></svg>

<svg xmlns="http://www.w3.org/2000/svg" viewBox="0 0 50 50" width="50" height="50" fill="#666"><path d="M 4 1 C 1.800781 1 0 2.800781 0 5 L 0 43 C 0 45.199219 1.800781 47 4 47 L 25 47 L 25 45 L 4 45 C 2.882813 45 2 44.117188 2 43 L 2 5 C 2 3.882813 2.882813 3 4 3 L 32 3 C 33.117188 3 34 3.882813 34 5 L 34 14 L 36 14 L 36 5 C 36 2.800781 34.199219 1 32 1 Z M 4.8125 5 C 4.335938 5.089844 3.992188 5.511719 4 6 L 4 39 C 4 39.550781 4.449219 40 5 40 L 25 40 L 25 38 L 6 38 L 6 7 L 30 7 L 30 14 L 32 14 L 32 6 C 32 5.449219 31.550781 5 31 5 L 5 5 C 4.96875 5 4.9375 5 4.90625 5 C 4.875 5 4.84375 5 4.8125 5 Z M 29 15 C 27.355469 15 26 16.355469 26 18 L 26 47 C 26 48.644531 27.355469 50 29 50 L 47 50 C 48.644531 50 50 48.644531 50 47 L 50 18 C 50 16.355469 48.644531 15 47 15 Z M 29 17 L 47 17 C 47.566406 17 48 17.433594 48 18 L 48 47 C 48 47.566406 47.566406 48 47 48 L 29 48 C 28.433594 48 28 47.566406 28 47 L 28 18 C 28 17.433594 28.433594 17 29 17 Z M 30.8125 19 C 30.335938 19.089844 29.992188 19.511719 30 20 L 30 42 C 30 42.550781 30.449219 43 31 43 L 45 43 C 45.550781 43 46 42.550781 46 42 L 46 20 C 46 19.449219 45.550781 19 45 19 L 31 19 C 30.96875 19 30.9375 19 30.90625 19 C 30.875 19 30.84375 19 30.8125 19 Z M 32 21 L 44 21 L 44 41 L 32 41 Z M 18 41 C 17.171875 41 16.5 41.671875 16.5 42.5 C 16.5 43.328125 17.171875 44 18 44 C 18.828125 44 19.5 43.328125 19.5 42.5 C 19.5 41.671875 18.828125 41 18 41 Z M 38 44 C 37.171875 44 36.5 44.671875 36.5 45.5 C 36.5 46.328125 37.171875 47 38 47 C 38.828125 47 39.5 46.328125 39.5 45.5 C 39.5 44.671875 38.828125 44 38 44 Z"/></svg>
